public/theme/icons/inactive-coriander.svg

<svg width="33" height="34" viewBox="0 0 33 34" fill="none" xmlns="http://www.w3.org/2000/svg">
<circle cx="15" cy="15" r="15" fill="#E1E1E1"/>
<path fill-rule="evenodd" clip-rule="evenodd" d="M29.1275 20.0533C29.6923 18.4744 30 16.7731 30 15C30 6.71573 23.2843 0 15 0C6.71573 0 0 6.71573 0 15C0 23.2843 6.71573 30 15 30C16.8311 30 18.5857 29.6719 20.2079 29.0712L8.31465 17.1779L8.31856 17.174L9.53771 16.8658L8.21094 15.5391L8.56055 15.1895L8.07812 14.707L8.6709 14.1143L11.0807 16.524L11.509 16.6848L10.3398 15.5156L10.6562 15.1992L9.51953 14.0625L10.0762 13.5059L11.2129 14.6426L11.7051 14.1504L11.084 13.5293L11.9082 12.7051L12.0137 12.8105L12.2129 12.6113L11.8535 12.252L12.291 11.8145L11.6309 11.1543L12.5 10.5L13.0449 9.51367L13.8184 10.2871L14.0288 10.0767L14.4722 10.52L14.7578 10.2344L13.9766 9.45312L15.3021 8.12757L15.3325 7.12451L15.8188 7.61084L15.9258 7.50391L16.707 8.28516L16.7578 8.23438L18.207 9.68359L18.4824 9.4082L29.1275 20.0533Z" fill="#E1E1E1"/>
<g filter="url(#filter0_d_105_29366)">
<path fill-rule="evenodd" clip-rule="evenodd" d="M15.5279 7.54849C15.5037 7.24066 15.293 7 15.0366 7H15.0365L15.0268 7.00012C14.7753 7.0062 14.57 7.24377 14.5456 7.54686C14.388 7.4487 14.2472 7.41336 14.1569 7.50698C14.0157 7.65324 14.0877 8.2274 14.2398 8.73098C13.9181 8.40572 13.5138 8.04505 13.3264 8.23925C13.1058 8.46789 13.7159 10.4535 14.0586 10.9375V10.9523C13.7761 10.6508 13.5477 10.2803 13.3648 9.98364L13.3648 9.98363C13.1445 9.62635 12.9903 9.37627 12.8873 9.48304C12.7889 9.56799 12.7141 9.81969 12.6704 10.1296L12.658 10.1167C12.3249 9.77062 11.8011 9.22641 11.6117 9.42267C11.518 9.51978 11.6442 10.0336 11.8382 10.5847C11.5924 10.5936 11.408 10.6317 11.3714 10.6968C11.271 10.8754 11.8068 11.3706 12.2988 11.6784L12.3016 11.6837C11.9446 11.6721 11.6472 11.7112 11.5997 11.7957C11.4958 11.9804 12.0723 12.5036 12.5772 12.8082C14.3526 13.8793 14.6113 15.7609 14.6446 16.4549V17.4121L14.4658 17.3051L14.4694 17.3051C14.4694 17.3051 12.7506 16.4036 12.7519 14.3467C12.7522 13.8761 12.6394 13.2709 12.4798 13.2723C12.4067 13.2729 12.2652 13.4663 12.1334 13.7211L12.1295 13.7144C12.1224 13.2517 12.0119 12.6872 11.8578 12.6885C11.8016 12.6889 11.7053 12.8029 11.604 12.971C11.3242 12.623 11.0422 12.3367 10.9431 12.3647C10.7427 12.4215 10.8896 12.9979 10.983 13.3644L10.9864 13.3778C10.7692 13.2886 10.5774 13.2437 10.4842 13.2797C10.3752 13.3106 10.4764 13.515 10.621 13.8069C10.7426 14.0525 10.895 14.36 10.9787 14.6784L10.9724 14.6746C10.8084 14.2587 9.74818 13.0428 9.51254 13.1095C9.3145 13.1656 9.38912 13.5865 9.47342 13.9368C9.20779 13.6358 8.8651 13.3635 8.71565 13.4058C8.61916 13.4331 8.58739 13.547 8.58993 13.6972C8.44514 13.6259 8.28635 13.6298 8.1698 13.6988C8.11753 13.7285 8.07363 13.7713 8.0431 13.826C7.97745 13.9439 7.98937 14.0894 8.0614 14.2133C8.0967 14.2753 8.14694 14.332 8.21 14.3772C8.08467 14.4487 8.00656 14.5329 8.03223 14.6322C8.07231 14.7872 8.47432 14.9599 8.85965 15.0485C8.52471 15.1458 8.1323 15.287 8.18549 15.4926C8.24809 15.7347 9.77709 16.0803 10.2142 16.0261L10.2196 16.0293C9.91467 16.1098 9.58537 16.1251 9.32203 16.1374C9.00656 16.1521 8.78575 16.1623 8.81486 16.2749C8.8317 16.3758 8.96521 16.5249 9.14831 16.6747L9.13674 16.6779C8.78497 16.7751 8.2318 16.9278 8.2853 17.1347C8.31182 17.2373 8.69308 17.3483 9.12418 17.4267C9.03511 17.6002 8.98856 17.7427 9.01641 17.7931C9.09289 17.9316 9.6193 17.7514 10.0078 17.5294L10.0108 17.5295C9.86545 17.7724 9.77584 17.9936 9.81205 18.0592C9.89112 18.2024 10.4511 18.005 10.8423 17.7729C12.5523 16.7585 14.1657 17.8492 14.1657 17.8492L14.1643 17.8468L14.6446 18.1341V18.1403H14.6549L14.6674 18.1478L14.752 20.8205C14.752 20.9403 14.7169 21.1297 14.6762 21.349C14.6036 21.7404 14.5133 22.2269 14.5734 22.5829C14.6671 23.1385 15.4245 23.1385 15.5126 22.5829C15.569 22.2268 15.4845 21.7399 15.4166 21.3485C15.3786 21.1294 15.3457 20.9402 15.3457 20.8205C15.3457 19.5032 15.4155 18.1938 15.4184 18.1403H15.4264V18.0943L16.0465 17.7234C16.5357 17.4712 17.8189 16.9697 19.1617 17.7663C19.5529 17.9984 20.1129 18.1958 20.1919 18.0526C20.2281 17.987 20.1385 17.7658 19.9932 17.5229L19.9952 17.5228C20.3837 17.7449 20.9101 17.925 20.9866 17.7865C21.0144 17.7361 20.9679 17.5937 20.8788 17.4201C21.3099 17.3417 21.6912 17.2307 21.7177 17.1282C21.7712 16.9212 21.218 16.7685 20.8663 16.6713L20.8545 16.6681C21.0382 16.5179 21.1722 16.3685 21.1891 16.2673C21.2182 16.1548 20.9974 16.1445 20.682 16.1298C20.4197 16.1176 20.092 16.1023 19.7882 16.0227L19.793 16.0199C20.2342 16.072 21.756 15.7276 21.8185 15.4861C21.8717 15.2804 21.4793 15.1392 21.1443 15.0419C21.5297 14.9533 21.9317 14.7806 21.9718 14.6256C21.9972 14.527 21.9204 14.4433 21.7965 14.372C21.9073 14.2916 21.9781 14.1756 21.9969 14.0577C22.0114 13.9755 22.0004 13.8922 21.9599 13.8195C21.8971 13.7068 21.7778 13.6452 21.6456 13.6423C21.57 13.6397 21.4901 13.6564 21.4141 13.6939C21.4166 13.5437 21.3848 13.4298 21.2883 13.4025C21.1389 13.3601 20.7962 13.6325 20.5306 13.9334C20.6149 13.5832 20.6895 13.1623 20.4914 13.1062C20.256 13.0395 19.1977 14.2529 19.0321 14.67L19.0256 14.6739C19.1094 14.3559 19.2615 14.0489 19.383 13.8036C19.5276 13.5116 19.6288 13.3073 19.5198 13.2764C19.4264 13.2403 19.2341 13.2854 19.0165 13.3749L19.02 13.3611C19.1134 12.9945 19.2603 12.4182 19.0599 12.3614C18.9609 12.3334 18.6792 12.6192 18.3996 12.967C18.2984 12.7993 18.2023 12.6856 18.1462 12.6851C17.9922 12.6838 17.8818 13.247 17.8745 13.7094L17.8701 13.7168C17.7384 13.4626 17.5972 13.2696 17.5242 13.2689C17.3645 13.2676 17.2518 13.8727 17.2521 14.3434C17.2534 16.4003 15.5345 17.3018 15.5345 17.3018L15.5444 17.3017L15.4264 17.3723V16.7114L15.4321 16.7217C15.4321 16.7217 15.2948 14.1392 17.523 12.8082C18.0328 12.5036 18.6151 11.9804 18.5102 11.7957C18.4621 11.711 18.1604 11.6719 17.7987 11.6838L17.8019 11.6776C18.2984 11.3696 18.8385 10.8752 18.7372 10.6968C18.7003 10.6318 18.5144 10.5937 18.2667 10.5847C18.4626 10.0336 18.5901 9.51978 18.4954 9.42267C18.3041 9.22641 17.7751 9.77063 17.4388 10.1167L17.4266 10.1292C17.3825 9.81946 17.3069 9.56796 17.2076 9.48304C17.1036 9.37627 16.9479 9.62635 16.7254 9.98363C16.5383 10.2842 16.3039 10.6606 16.0133 10.9643V10.9512C16.3573 10.4923 16.9878 8.47012 16.7628 8.23925C16.5736 8.04512 16.1655 8.40546 15.8407 8.73061C15.9945 8.22689 16.0673 7.65231 15.9247 7.506C15.8326 7.41154 15.6887 7.44835 15.5279 7.54849ZM15.045 9.55672L15.0361 9.56664L15.028 9.55761L15.0375 9.55364L15.045 9.55672ZM9.69909 14.8063L9.7032 14.8203L9.69071 14.8233L9.69229 14.8119L9.69909 14.8063ZM20.3017 14.8139L20.3049 14.803L20.3122 14.8089L20.3133 14.8167L20.3017 14.8139Z" fill="white"/>
</g>
<defs>
<filter id="filter0_d_105_29366" x="4" y="5" width="22.0029" height="23.9996" filterUnits="userSpaceOnUse" color-interpolation-filters="sRGB">
<feFlood flood-opacity="0" result="BackgroundImageFix"/>
<feColorMatrix in="SourceAlpha" type="matrix" values="0 0 0 0 0 0 0 0 0 0 0 0 0 0 0 0 0 0 127 0" result="hardAlpha"/>
<feOffset dy="2"/>
<feGaussianBlur stdDeviation="2"/>
<feComposite in2="hardAlpha" operator="out"/>
<feColorMatrix type="matrix" values="0 0 0 0 0 0 0 0 0 0 0 0 0 0 0 0 0 0 0.1 0"/>
<feBlend mode="normal" in2="BackgroundImageFix" result="effect1_dropShadow_105_29366"/>
<feBlend mode="normal" in="SourceGraphic" in2="effect1_dropShadow_105_29366" result="shape"/>
</filter>
</defs>
</svg>

<svg xmlns="http://www.w3.org/2000/svg" width="33" height="34" fill="none"><circle cx="15" cy="15" r="15" fill="#E1E1E1"/><path fill="#E1E1E1" fill-rule="evenodd" d="M29.128 20.053c.564-1.579.872-3.28.872-5.053 0-8.284-6.716-15-15-15S0 6.716 0 15s6.716 15 15 15c1.831 0 3.586-.328 5.208-.929L8.315 17.178l.004-.004 1.219-.308-1.327-1.327.35-.35-.483-.482.593-.593 2.41 2.41.428.16-1.17-1.168.317-.317-1.136-1.136.556-.557 1.137 1.137.492-.493-.621-.62.824-.825.106.105.199-.199-.36-.359.438-.437-.66-.66.869-.655.545-.986.773.773.21-.21.444.443.286-.286-.781-.78 1.325-1.326.03-1.003.487.486.107-.107.781.781.05-.05 1.45 1.449.275-.276z" clip-rule="evenodd"/><g filter="url(#a)"><path fill="#fff" fill-rule="evenodd" d="M15.528 7.548c-.024-.307-.235-.548-.491-.548h-.01c-.252.006-.457.244-.481.547-.158-.098-.299-.134-.39-.04-.14.146-.068.72.084 1.224-.322-.325-.726-.686-.914-.492-.22.229.39 2.214.733 2.698v.015c-.283-.301-.511-.672-.694-.968-.22-.358-.375-.608-.478-.501-.098.085-.173.337-.217.647l-.012-.013c-.333-.346-.857-.89-1.046-.694-.094.097.032.61.226 1.162-.246.009-.43.047-.467.112-.1.178.436.674.928.981l.003.006c-.357-.012-.655.027-.702.112-.104.184.472.708.977 1.012 1.776 1.071 2.034 2.953 2.068 3.647v.957l-.18-.107h.004s-1.718-.901-1.717-2.958c0-.47-.113-1.076-.272-1.075-.073 0-.215.194-.347.45l-.003-.008c-.008-.462-.118-1.027-.272-1.026-.056 0-.153.115-.254.283-.28-.348-.562-.634-.66-.606-.201.056-.054.633.039 1l.003.013c-.217-.09-.409-.134-.502-.098-.109.03-.008.235.137.527.122.245.274.553.358.871l-.007-.003c-.164-.416-1.224-1.632-1.46-1.565-.197.056-.123.476-.039.827-.265-.301-.608-.573-.757-.531-.097.027-.129.141-.126.291a.44.44 0 0 0-.42.002.33.33 0 0 0-.127.127.39.39 0 0 0 .018.387.5.5 0 0 0 .149.164c-.125.072-.203.156-.178.255.04.155.442.328.828.417-.335.097-.728.238-.675.444.063.242 1.592.587 2.03.533l.005.003c-.305.08-.635.096-.898.108-.315.015-.536.025-.507.138.017.1.15.25.333.4l-.011.003c-.352.097-.905.25-.852.457.027.102.408.213.84.292-.09.173-.136.316-.109.366.077.139.603-.042.992-.264h.003c-.146.243-.235.465-.199.53.08.143.64-.054 1.03-.286 1.71-1.014 3.324.076 3.324.076l-.002-.002.48.287v.006h.01l.013.008.085 2.672c0 .12-.035.31-.076.529-.072.391-.163.878-.103 1.234a.473.473 0 0 0 .94 0c.056-.356-.028-.843-.096-1.234-.038-.22-.071-.409-.071-.529 0-1.317.07-2.626.072-2.68h.008v-.046l.62-.37c.49-.253 1.773-.754 3.116.042.39.232.95.43 1.03.287.036-.066-.053-.287-.199-.53h.002c.389.222.915.402.992.264.027-.05-.02-.193-.108-.367.43-.078.812-.19.839-.292.053-.207-.5-.36-.852-.457l-.011-.003c.183-.15.317-.3.334-.4.03-.113-.192-.123-.507-.138-.262-.012-.59-.028-.894-.107l.005-.003c.441.052 1.963-.292 2.026-.534.053-.206-.34-.347-.675-.444.386-.089.788-.261.828-.416.025-.099-.052-.183-.175-.254a.5.5 0 0 0 .2-.314.36.36 0 0 0-.037-.239.36.36 0 0 0-.314-.177.5.5 0 0 0-.232.052c.003-.15-.03-.264-.126-.292-.15-.042-.492.23-.757.531.084-.35.159-.77-.04-.827-.235-.066-1.293 1.147-1.459 1.564l-.006.004c.083-.318.236-.625.357-.87.145-.292.246-.497.137-.528-.094-.036-.286.01-.503.099l.003-.014c.093-.367.24-.943.04-1-.1-.028-.38.258-.66.606-.102-.168-.198-.281-.254-.282-.154-.001-.264.562-.271 1.024l-.005.008c-.132-.254-.273-.447-.346-.448-.16-.001-.272.604-.272 1.074.001 2.057-1.717 2.959-1.717 2.959h.01l-.119.07v-.66l.006.01s-.137-2.583 2.091-3.914c.51-.304 1.092-.828.987-1.012-.048-.085-.35-.124-.711-.112l.003-.006c.496-.308 1.037-.803.935-.981-.037-.065-.223-.103-.47-.112.196-.551.323-1.065.228-1.162-.19-.197-.72.348-1.056.694l-.012.012c-.044-.31-.12-.561-.22-.646-.103-.107-.26.143-.482.5-.187.301-.421.678-.712.981v-.013c.344-.459.975-2.48.75-2.712-.19-.194-.598.166-.922.492.154-.504.226-1.079.084-1.225-.092-.094-.236-.058-.397.042m-.483 2.009-.009.01-.008-.01.01-.003zm-5.346 5.25.004.013-.012.003.001-.011zm10.603.007.003-.011.007.006.001.008z" clip-rule="evenodd"/></g><defs><filter id="a" width="22.003" height="24" x="4" y="5" color-interpolation-filters="sRGB" filterUnits="userSpaceOnUse"><feFlood flood-opacity="0" result="BackgroundImageFix"/><feColorMatrix in="SourceAlpha" result="hardAlpha" values="0 0 0 0 0 0 0 0 0 0 0 0 0 0 0 0 0 0 127 0"/><feOffset dy="2"/><feGaussianBlur stdDeviation="2"/><feComposite in2="hardAlpha" operator="out"/><feColorMatrix values="0 0 0 0 0 0 0 0 0 0 0 0 0 0 0 0 0 0 0.1 0"/><feBlend in2="BackgroundImageFix" result="effect1_dropShadow_105_29366"/><feBlend in="SourceGraphic" in2="effect1_dropShadow_105_29366" result="shape"/></filter></defs></svg>
